static/img/article-icons/nodejs.svg

<?xml version="1.0" standalone="no"?><!-- Generator: Gravit.io --><svg xmlns="http://www.w3.org/2000/svg" xmlns:xlink="http://www.w3.org/1999/xlink" style="isolation:isolate" viewBox="471.688 1 30.312 35" width="30.312" height="35"><path d=" M 494.072 16.391 C 494.072 16.391 493.782 13.9 491.117 13.9 C 488.453 13.9 486.628 14.248 486.628 15.725 C 486.628 17.202 491.813 17.202 493.782 17.781 C 495.752 18.361 497.489 19.867 496.62 22.531 C 495.752 25.196 493.087 25.486 488.974 25.486 C 484.861 25.486 483.934 22.068 483.934 20.736 L 486.251 20.736 C 486.251 20.736 485.962 22.821 488.684 23.168 C 491.407 23.516 494.01 23.711 494.361 21.605 C 494.824 18.824 485.556 20.214 484.745 17.492 C 484.06 15.192 484.455 12.163 489.089 11.699 C 493.724 11.236 496.272 13.282 496.272 16.333 L 494.072 16.391 Z  M 471.689 27.25 L 476.811 30.208 C 479.385 31.693 482.602 29.836 482.602 26.864 L 482.602 21.682 L 482.602 12.144 L 480.514 12.144 L 480.514 26.283 C 480.514 27.906 478.757 28.921 477.351 28.109 L 473.776 26.045 L 473.776 10.955 L 486.844 3.411 L 499.912 10.955 L 499.912 26.045 L 486.844 33.589 L 483.08 31.416 L 480.621 32.407 L 486.844 36 L 502 27.249 L 502 9.75 L 486.844 1 L 471.688 9.751 L 471.688 27.25 L 471.689 27.25 Z " fill-rule="evenodd" fill="rgb(42,187,26)"/></svg>

<svg xmlns="http://www.w3.org/2000/svg" style="isolation:isolate" viewBox="471.69 1 30.31 35" width="30.31" height="35"><path d="M494.07 16.4s-.29-2.5-2.95-2.5c-2.67 0-4.5.35-4.5 1.82 0 1.48 5.2 1.48 7.16 2.06 1.97.58 3.7 2.09 2.84 4.75-.87 2.67-3.53 2.96-7.65 2.96a4.78 4.78 0 0 1-5.04-4.75h2.32s-.29 2.08 2.43 2.43c2.73.35 5.33.54 5.68-1.57.46-2.78-8.8-1.39-9.62-4.1-.68-2.3-.29-5.34 4.35-5.8 4.63-.46 7.18 1.58 7.18 4.63l-2.2.06zM471.7 27.24l5.12 2.96a3.86 3.86 0 0 0 5.8-3.35V12.14h-2.1v14.14a2.1 2.1 0 0 1-3.16 1.83l-3.57-2.06v-15.1l13.06-7.54 13.07 7.54v15.1l-13.07 7.54-3.76-2.17-2.46.99 6.22 3.59L502 27.25V9.75L486.84 1 471.7 9.75v17.5z" fill-rule="evenodd" fill="#2ABB1A"/></svg>
